images/fq2-hover.svg

<svg width="20" height="19" viewBox="0 0 20 19" fill="none" xmlns="http://www.w3.org/2000/svg">
<path d="M13.2404 7.43368C13.2404 5.53065 11.6834 3.97363 9.78036 3.97363C7.87733 3.97363 6.32031 5.53065 6.32031 7.43368C6.32031 9.3367 7.87733 10.8937 9.78036 10.8937C11.6834 10.8937 13.2404 9.3367 13.2404 7.43368ZM8.51167 8.70236C8.281 8.47169 8.281 8.11415 8.51167 7.88348L8.97301 7.42215L8.51167 6.96081C8.281 6.73014 8.281 6.3726 8.51167 6.14193C8.74234 5.91126 9.09988 5.91126 9.33055 6.14193L9.79189 6.60327L10.2532 6.14193C10.4839 5.91126 10.8414 5.91126 11.0721 6.14193C11.3028 6.3726 11.3028 6.73014 11.0721 6.96081L10.6108 7.42215L11.0721 7.88348C11.3028 8.11415 11.3028 8.47169 11.0721 8.70236C10.8414 8.93303 10.4839 8.93303 10.2532 8.70236L9.79189 8.24102L9.33055 8.70236C9.09988 8.93303 8.74234 8.93303 8.51167 8.70236Z" fill="#2161AB"/>
<path d="M2.8603 18.9668H16.7005C17.0791 18.9668 17.4541 18.8922 17.8039 18.7473C18.1537 18.6024 18.4716 18.39 18.7393 18.1223C19.0071 17.8545 19.2195 17.5367 19.3644 17.1868C19.5093 16.837 19.5839 16.4621 19.5839 16.0834V8.00998C19.5839 7.11037 19.1571 6.24536 18.4305 5.70329L17.2772 4.83827V4.54994C17.2772 3.78522 16.9734 3.05182 16.4326 2.51109C15.8919 1.97035 15.1585 1.66657 14.3938 1.66657H12.8714L11.5912 0.640086C11.0829 0.226071 10.4475 0 9.79193 0C9.13641 0 8.50094 0.226071 7.99271 0.640086L6.71249 1.66657H5.19007C4.42535 1.66657 3.69195 1.97035 3.15122 2.51109C2.61048 3.05182 2.3067 3.78522 2.3067 4.54994V4.83827L1.15335 5.70329C0.438273 6.24536 0 7.11037 0 8.00998V16.0834C0 16.8481 0.303783 17.5815 0.84452 18.1223C1.38526 18.663 2.11865 18.9668 2.88337 18.9668H2.8603ZM16.7005 16.6601H12.0871C11.7642 16.6601 11.5104 16.4064 11.5104 16.0834C11.5104 15.7605 11.7642 15.5067 12.0871 15.5067H16.7005C17.0234 15.5067 17.2772 15.7605 17.2772 16.0834C17.2772 16.4064 17.0234 16.6601 16.7005 16.6601ZM16.7005 13.2001C17.0234 13.2001 17.2772 13.4538 17.2772 13.7767C17.2772 14.0997 17.0234 14.3534 16.7005 14.3534H14.3938C14.0709 14.3534 13.8171 14.0997 13.8171 13.7767C13.8171 13.4538 14.0709 13.2001 14.3938 13.2001H16.7005ZM3.43698 4.54994C3.43698 3.59266 4.20972 2.81991 5.167 2.81991H14.3938C15.3511 2.81991 16.1238 3.59266 16.1238 4.54994V9.38247L10.5531 12.162C10.0687 12.4042 9.49206 12.4042 9.00765 12.162L3.43698 9.38247V4.54994Z" fill="#2161AB"/>
</svg>

<svg width="20" height="19" fill="none" xmlns="http://www.w3.org/2000/svg"><path d="M13.24 7.434a3.47 3.47 0 00-3.46-3.46 3.47 3.47 0 00-3.46 3.46 3.47 3.47 0 003.46 3.46 3.47 3.47 0 003.46-3.46zM8.512 8.702a.571.571 0 010-.819l.461-.46-.461-.462a.571.571 0 010-.82c.23-.23.588-.23.819 0l.46.462.462-.461c.23-.23.588-.23.82 0 .23.23.23.588 0 .819l-.462.461.461.461c.23.231.23.589 0 .82a.571.571 0 01-.819 0l-.461-.462-.461.461a.571.571 0 01-.82 0z" fill="#2161AB"/><path d="M2.86 18.967H16.7a2.883 2.883 0 002.884-2.884V8.01c0-.9-.427-1.765-1.154-2.307l-1.153-.865V4.55a2.883 2.883 0 00-2.883-2.883H12.87L11.591.64a2.849 2.849 0 00-3.598 0l-1.28 1.027H5.19A2.883 2.883 0 002.307 4.55v.288l-1.154.865A2.923 2.923 0 000 8.01v8.073a2.884 2.884 0 002.883 2.884H2.86zM16.7 16.66h-4.613a.571.571 0 01-.577-.577c0-.322.254-.576.577-.576h4.614c.322 0 .576.254.576.576a.571.571 0 01-.576.577zm0-3.46c.323 0 .577.254.577.577a.571.571 0 01-.576.576h-2.307a.571.571 0 01-.577-.576c0-.323.254-.577.577-.577H16.7zM3.438 4.55c0-.957.773-1.73 1.73-1.73h9.227c.957 0 1.73.773 1.73 1.73v4.832l-5.57 2.78a1.734 1.734 0 01-1.546 0l-5.571-2.78V4.55z" fill="#2161AB"/></svg>
